icons/linear-ele-time-timer.svg

<svg xmlns="http://www.w3.org/2000/svg" width="32px" height="32px" viewBox="0 0 32 32" version="1.1">
    <title>linear-ele-time-timer</title>
    <g id="linear-ele-time-timer" stroke-width="1" fill-rule="evenodd">
        <path d="M20,2 C20.5522847,2 21,2.44771525 21,3 C21,3.55228475 20.5522847,4 20,4 L17,4 L17.0004669,6.0411123 C23.1597751,6.54948543 28,11.7094952 28,18 C28,24.627417 22.627417,30 16,30 C9.372583,30 4,24.627417 4,18 C4,11.7091542 8.84074966,6.548926 15.0005348,6.04102967 L15,4 L12,4 C11.4477153,4 11,3.55228475 11,3 C11,2.44771525 11.4477153,2 12,2 L20,2 Z M16,8 C10.4771525,8 6,12.4771525 6,18 C6,23.5228475 10.4771525,28 16,28 C21.5228475,28 26,23.5228475 26,18 C26,12.4771525 21.5228475,8 16,8 Z M16,10 C16.5522847,10 17,10.4477153 17,11 L17.0010775,16.2681881 C17.5982846,16.6141507 18,17.2601625 18,18 C18,19.1045695 17.1045695,20 16,20 C14.8954305,20 14,19.1045695 14,18 C14,17.2597476 14.4021661,16.6134261 14.9999275,16.2676063 L15,11 C15,10.4477153 15.4477153,10 16,10 Z" id="&#24418;&#29366;" fill-rule="nonzero" />
    </g>
</svg>

<svg xmlns="http://www.w3.org/2000/svg" viewBox="0 0 32 32"><path fill="currentColor" d="M20 2a1 1 0 0 1 0 2h-3v2.041C23.16 6.55 28 11.71 28 18c0 6.627-5.373 12-12 12S4 24.627 4 18C4 11.71 8.84 6.549 15 6.041V4h-3a1 1 0 0 1 0-2zm-4 6C10.477 8 6 12.477 6 18s4.477 10 10 10 10-4.477 10-10S21.523 8 16 8m0 2a1 1 0 0 1 1 1l.001 5.268a2 2 0 1 1-2.001 0V11a1 1 0 0 1 1-1"/></svg>
